icon-themes/sifr_svg/cmd/lc_removefiltersort.svg

<svg viewBox="0 0 24 24" xmlns="http://www.w3.org/2000/svg"><path d="m3 2v1l2 2 2-2v-1zm5 0v1l2 2 2-2v-1zm5 0v1l2 2 2-2v-1zm-9 4c-.552262 0-1 .44774-1 1v1h14v-1c0-.55226-.447738-1-1-1zm-1 3c.01563 1.01563 0 1 1 2l4 4h4l4-4c1-1 1-1 1-2zm12.1875 4c-.6375 0-1.1875.55-1.1875 1.21875v6.5625c0 .66875.55 1.21875 1.1875 1.21875h6.8125c.66 0 1-.55 1-1.21875v-6.5625c0-.66875-.337286-1.21875-1-1.21875zm-.1875 1h1l2.5 2.5 2.5-2.5h1v1l-2.5 2.5 2.5 2.4v1h-1l-2.5-2.4-2.5 2.5h-1v-1l2.5-2.5-2.5-2.5zm-7 2v5c0 .9 1.08 1.336591 1.71.71l2-2c.19-.190479.29-.4448.29-.71v-3z" fill="#555753"/></svg>

<svg xmlns="http://www.w3.org/2000/svg" viewBox="0 0 24 24">
  <path
     style="fill:#555753"
     d="M 3 2 L 3 3 L 5 5 L 7 3 L 7 2 L 3 2 z M 8 2 L 8 3 L 10 5 L 12 3 L 12 2 L 8 2 z M 13 2 L 13 3 L 15 5 L 17 3 L 17 2 L 13 2 z M 4 6 C 3.447738 6 3 6.44774 3 7 L 3 8 L 17 8 L 17 7 C 17 6.44774 16.552262 6 16 6 L 4 6 z M 3 9 C 3.01563 10.01563 3 10 4 11 L 8 15 L 12 15 L 16 11 C 17 10 17 10 17 9 L 3 9 z M 15.1875 13 C 14.55 13 14 13.55 14 14.21875 L 14 20.78125 C 14 21.45 14.55 22 15.1875 22 L 22 22 C 22.66 22 23 21.45 23 20.78125 L 23 14.21875 C 23 13.55 22.662714 13 22 13 L 15.1875 13 z M 15 14 L 16 14 L 18.5 16.5 L 21 14 L 22 14 L 22 15 L 19.5 17.5 L 22 19.9 L 22 20.9 L 21 20.9 L 18.5 18.5 L 16 21 L 15 21 L 15 20 L 17.5 17.5 L 15 15 L 15 14 z M 8 16 L 8 21 C 8 21.9 9.08 22.336591 9.71 21.71 L 11.71 19.71 C 11.9 19.519521 12 19.2652 12 19 L 12 16 L 8 16 z "
     />
</svg>
